packages/icons/svg/Fill/inbox.svg

<svg width="24" height="24" viewBox="0 0 24 24" fill="none" xmlns="http://www.w3.org/2000/svg">
<g id="Icon/Fill/inbox">
<path id="Mask" fill-rule="evenodd" clip-rule="evenodd" d="M8.34176 5.55269C8.51076 5.21369 8.85776 4.99969 9.23676 4.99969H14.7638C15.1428 4.99969 15.4888 5.21369 15.6578 5.55269L18.3818 10.9997H15.9998C15.4478 10.9997 14.9998 11.4477 14.9998 11.9997V13.9997C14.9998 14.5527 14.5518 14.9997 13.9998 14.9997H9.99976C9.44776 14.9997 8.99976 14.5527 8.99976 13.9997V11.9997C8.99976 11.4477 8.55176 10.9997 7.99976 10.9997H5.61776L8.34176 5.55269ZM20.7888 11.3417L17.4468 4.65769C16.9358 3.63569 15.9078 2.99969 14.7638 2.99969H9.23576C8.09176 2.99969 7.06476 3.63569 6.55276 4.65769L3.21076 11.3417C3.07276 11.6177 2.99976 11.9277 2.99976 12.2367V17.9997C2.99976 19.6547 4.34576 20.9997 5.99976 20.9997H17.9998C19.6548 20.9997 20.9998 19.6547 20.9998 17.9997V12.2367C20.9998 11.9277 20.9268 11.6177 20.7888 11.3417Z" fill="#000000"/>
</g>
</svg>

<svg fill="none" height="24" viewBox="0 0 24 24" width="24" xmlns="http://www.w3.org/2000/svg"><path clip-rule="evenodd" d="m8.3418 5.55282c.169-.339.516-.553.895-.553h5.527c.379 0 .725.214.894.553l2.724 5.44698h-2.382c-.552 0-1 .448-1 1v2c0 .553-.448 1-1 1h-4c-.552 0-1-.447-1-1v-2c0-.552-.448-1-1-1h-2.382zm12.447 5.78898-3.342-6.68404c-.511-1.022-1.539-1.658-2.683-1.658h-5.52801c-1.144 0-2.171.636-2.683 1.658l-3.342 6.68404c-.138.276-.211.586-.211.895v5.763c0 1.655 1.346 3 3 3h12.00001c1.655 0 3-1.345 3-3v-5.763c0-.309-.073-.619-.211-.895z" fill="#6b7280" fill-rule="evenodd"/></svg>
